X: 19506
T: Jacky Tar
R: hornpipe
M: 4/4
K: Edorian
|:Beed e2ef|edBA B2(3ABc|d2dc dggf|edBG A2BA|
~G3A B2gf|edBd efg2|EFGA BdBA|G2E2 E2GA:|
|:BGEG BGEG|BAGF E2FG|AFDF AFDF|AGFE D2EF|
~G3A B2gf|edBd efg2|EFGA BdBA|1 G2E2 E2GA:|2 G2E2 E4||

